X: 347
T: Bir Ataş Ver Cıgaramı Yakayım
C: (Anonim)
O: Turkey
F: http://compmusic.upf.edu/node/140
N: nihavent--turku--agir_aksaksemai--bir_ates_ver--
N: makam= nihavent
N: form= turku
N: usul= agir_aksaksemai = 10/4
M: 10/4
L: 1/16
K: C _B _e  
Q: 1/4=54
%%MIDI tuningsystem comma53
d2df e2d2 ABG2 dd3 e3/2d/c2 BAd2 d3/2c/BA B3/2A/G^F G3A BGd2  | 
w:  ARANAĞME  | 
d2df {A}e2d2 ABG2 dd3 edc2 B/A/Bd2 d3/2c/BA BAG^F G3A BGd2  | 
w:  Ah  bir  a *  taş  *  ver  *  *  cı ga ra *  *  mı  *  *  *  ya *  *  *  *  *  ka *  yım   SAZ  | 
d2df {A}e2d2 ABG2 dd3 edc2 B/A/Bd2 d3/2c/BA BAG^F G3A BGd2  | 
w:  Sen  sal *  *  lan  *  gel  *  *  ben  bo yu *  *  na  *  *  *  ba *  *  *  *  *  ka *  yım   SAZ  | 
^ff3 g3/2f/ed d4 f2f2 g3/2f/ed d4 g3/2f/ed g3/2f/ed d3A BGd2  | 
w:  U zun_ o *  *  *  lur  ge mi le *  *  *  rin  di *  *  *  *  *  re *  ği   SAZ  | 
^ff3 g3/2f/ed d4 f2f2 g3/2f/ed d4 g3/2f/ed g3/2f/ed d3A BGd2  | 
w:  U zun_ o *  *  *  lur  ge mi le *  *  *  rin  di *  *  *  *  *  re *  ği   SAZ  | 
d2df e2d2 ABG2 dd3 e3/2d/c2 BAd2 d3/2c/BA B3/2A/G^F G3A BGd2  | 
w:  Ah  ça tal_ o *  lur  *  *  e fe le *  *  rin  *  *  yü *  *  *  *  *  re *  ği   SAZ  | 
d2df e2d2 ABG2 dd3 e3/2d/c2 BAd2 d3/2c/BA B3/2A/G^F G3A BGd2  | 
w:  Ah  ça tal_ o *  lur  *  *  e fe le *  *  rin  *  *  yü *  *  *  *  *  re *  ği   SAZ  | 
d2df e2d2 ABG2 dd3 e3/2d/c2 BAd2 d3/2c/BA B3/2A/G^F G3A BGd2  | 
w:  ARANAĞME  | 
d2df {A}e2d2 ABG2 dd3 edc2 B/A/Bd2 d3/2c/BA BAG^F G3A BGd2  | 
w:  Ah  bir  a *  taş  *  ver  *  *  cı ga ra *  *  mı  *  *  *  ya *  *  *  *  *  ka *  yım   SAZ  | 
d2df {A}e2d2 ABG2 dd3 edc2 B/A/Bd2 d3/2c/BA BAG^F G3A BGd2  | 
w:  Sen  sal *  *  lan  *  gel  *  *  ben  bo yu *  *  na  *  *  *  ba *  *  *  *  *  ka *  yım   SAZ  | 
^ff3 g3/2f/ed d4 f2f2 g3/2f/ed d4 g3/2f/ed g3/2f/ed d3A BGd2  | 
w:  U zun_ o *  *  *  lur  ge mi le *  *  *  rin  di *  *  *  *  *  re *  ği   SAZ  | 
^ff3 g3/2f/ed d4 f2f2 g3/2f/ed d4 g3/2f/ed g3/2f/ed d3A BGd2  | 
w:  U zun_ o *  *  *  lur  ge mi le *  *  *  rin  di *  *  *  *  *  re *  ği   SAZ  | 
d2df e2d2 ABG2 dd3 e3/2d/c2 BAd2 d3/2c/BA B3/2A/G^F G3|
w:  Ah  ça tal_ o *  lur  *  *  e fe le *  *  rin  *  *  yü *  *  *  *  *  re *  ği    | 


